packages/kaspersky-hexa-ui-icons/src/iconsSVGs/64x42/FlagAd.svg

<svg xmlns="http://www.w3.org/2000/svg" width="64" height="42" fill="none" viewBox="0 0 64 42"><g clip-path="url(#a)"><rect width="64" height="42" fill="#fff" rx="5"/><path fill="#1537d1" d="M0-1.8571h63.9999v45.7142H0z"/><path fill="#ea3058" d="M30.4762-1.8571H64v45.7142H30.4762z"/><path fill="#ffcf3c" fill-rule="evenodd" d="M21.3335 43.8571h21.3333V-1.8571H21.3335z" clip-rule="evenodd"/><path fill="#ffedb1" fill-rule="evenodd" d="M28.9521 17.9523h3.0477v1.5238h-3.0477z" clip-rule="evenodd"/><mask id="b" fill="#fff"><path fill-rule="evenodd" d="M27.5663 18.0839c-.0743-.8911.6289-1.6553 1.5231-1.6553h5.8208c.8941 0 1.5973.7642 1.5231 1.6553l-.3904 4.6847c-.1321 1.5842-1.4564 2.8028-3.0462 2.8028h-1.9939c-1.5897 0-2.9141-1.2186-3.0461-2.8028z" clip-rule="evenodd"/></mask><path stroke="#d32e28" stroke-width="3" d="M27.5663 18.0839c-.0743-.8911.6289-1.6553 1.5231-1.6553h5.8208c.8941 0 1.5973.7642 1.5231 1.6553l-.3904 4.6847c-.1321 1.5842-1.4564 2.8028-3.0462 2.8028h-1.9939c-1.5897 0-2.9141-1.2186-3.0461-2.8028z" clip-rule="evenodd" mask="url(#b)"/><path fill="#d32e28" fill-rule="evenodd" d="M28.9521 19.4762h6.0953V21h-6.0953z" clip-rule="evenodd"/></g><defs><clipPath id="a"><rect width="64" height="42" fill="#fff" rx="5"/></clipPath></defs></svg>

<svg width="64" height="42" viewBox="0 0 64 42" fill="none" xmlns="http://www.w3.org/2000/svg">
<g clip-path="url(#clip0_37941_2180)">
<rect width="64" height="42" rx="5" fill="white"/>
<rect y="-1.85712" width="63.9999" height="45.7142" fill="#1537D1"/>
<rect x="30.4762" y="-1.85712" width="33.5238" height="45.7142" fill="#EA3058"/>
<path fill-rule="evenodd" clip-rule="evenodd" d="M21.3335 43.8571H42.6668V-1.85712H21.3335V43.8571Z" fill="#FFCF3C"/>
<path fill-rule="evenodd" clip-rule="evenodd" d="M28.9521 17.9523H31.9998V19.4761H28.9521V17.9523Z" fill="#FFEDB1"/>
<mask id="path-6-inside-1_37941_2180" fill="white">
<path fill-rule="evenodd" clip-rule="evenodd" d="M27.5663 18.0839C27.492 17.1928 28.1952 16.4286 29.0894 16.4286H34.9102C35.8043 16.4286 36.5075 17.1928 36.4333 18.0839L36.0429 22.7686C35.9108 24.3528 34.5865 25.5714 32.9967 25.5714H31.0028C29.4131 25.5714 28.0887 24.3528 27.9567 22.7686L27.5663 18.0839Z"/>
</mask>
<path fill-rule="evenodd" clip-rule="evenodd" d="M27.5663 18.0839C27.492 17.1928 28.1952 16.4286 29.0894 16.4286H34.9102C35.8043 16.4286 36.5075 17.1928 36.4333 18.0839L36.0429 22.7686C35.9108 24.3528 34.5865 25.5714 32.9967 25.5714H31.0028C29.4131 25.5714 28.0887 24.3528 27.9567 22.7686L27.5663 18.0839Z" stroke="#D32E28" stroke-width="3.05668" mask="url(#path-6-inside-1_37941_2180)"/>
<path fill-rule="evenodd" clip-rule="evenodd" d="M28.9521 19.4762H35.0474V21H33.5236H30.476H28.9521V19.4762Z" fill="#D32E28"/>
</g>
<defs>
<clipPath id="clip0_37941_2180">
<rect width="64" height="42" rx="5" fill="white"/>
</clipPath>
</defs>
</svg>
